assets/bank-tab/Asset/Reload Forex Card.svg

<svg width="24" height="24" viewBox="0 0 24 24" fill="none" xmlns="http://www.w3.org/2000/svg">
<path d="M0.349669 3.9805C0.217808 4.65158 0.151878 4.98712 0.362829 5.24356C0.57378 5.49999 0.951245 5.49999 1.70618 5.49999H20.7332C21.4974 5.49999 21.8795 5.49999 22.0906 5.2404C22.3016 4.9808 22.2308 4.64131 22.0892 3.96232C21.9927 3.50001 21.8504 3.17737 21.5856 2.92008C21.093 2.44138 20.3708 2.39162 18.9263 2.29211C13.2817 1.90321 9.17025 1.9028 3.53207 2.28986C2.07156 2.39012 1.34131 2.44025 0.846704 2.92726C0.581512 3.18838 0.441245 3.51444 0.349669 3.9805Z" fill="#785103"/>
<path fill-rule="evenodd" clip-rule="evenodd" d="M22.4914 8.81315C22.4779 8.19512 22.4711 7.88611 22.2661 7.68558C22.0612 7.48505 21.744 7.48505 21.1098 7.48505H1.38819C0.748227 7.48505 0.428244 7.48505 0.22293 7.68745C0.0176153 7.88985 0.0131453 8.2025 0.00420525 8.8278C-0.0171086 10.3186 0.0427684 11.7767 0.179949 13.4022C0.300053 14.8253 0.360104 15.5369 0.849693 16.0228C1.33928 16.5086 2.06403 16.5642 3.51354 16.6754C6.06728 16.8714 8.30713 16.9785 10.5163 16.9971C10.7868 16.9994 11 16.7705 11 16.5C11 12.3579 14.3579 9 18.5 9C19.492 9 20.439 9.19259 21.3057 9.54243C21.8499 9.76209 22.5042 9.39986 22.4914 8.81315ZM2.44217 12.4477C2.44217 11.8996 2.88654 11.4552 3.4347 11.4552H5.3471C5.89526 11.4552 6.33963 11.8996 6.33963 12.4477C6.33963 12.9959 5.89526 13.4402 5.3471 13.4402H3.4347C2.88654 13.4402 2.44217 12.9959 2.44217 12.4477Z" fill="#785103"/>
<path fill-rule="evenodd" clip-rule="evenodd" d="M18.5 22C21.5376 22 24 19.5376 24 16.5C24 13.4624 21.5376 11 18.5 11C15.4624 11 13 13.4624 13 16.5C13 19.5376 15.4624 22 18.5 22ZM19.9537 19.6518C20.5204 19.3977 20.4067 18.6534 19.8455 18.387C19.5855 18.2636 19.2851 18.2861 19.0064 18.3583C18.5506 18.4763 18.05 18.4224 17.61 18.1684C17.4353 18.0676 17.2832 17.9427 17.1554 17.8004C16.8446 17.4543 17.1822 16.9999 17.6474 16.9999C17.735 16.9999 17.7802 16.8953 17.7203 16.8315L16.0721 15.0767C16.0329 15.035 15.9668 15.0346 15.9271 15.0759L14.2411 16.8307C14.1801 16.8942 14.2251 17 14.3132 17C14.76 17 15.1282 17.3327 15.2913 17.7487C15.6028 18.5434 16.2057 19.2258 17.0377 19.6208C17.9954 20.0755 19.0566 20.0541 19.9537 19.6518ZM19.9317 15.3214C20.1903 15.6125 19.9193 16 19.53 16.0001C19.4395 16.0001 19.3955 16.1107 19.4613 16.1728L21.3196 17.9272C21.3614 17.9667 21.4278 17.9629 21.4648 17.9189L22.9402 16.1643C22.9949 16.0993 22.9486 16 22.8636 16C22.3538 16 21.9366 15.6154 21.7411 15.1445C21.4227 14.3774 20.8301 13.7211 20.0207 13.3369C19.1228 12.9106 18.134 12.9028 17.2747 13.2349C16.6115 13.4913 16.7369 14.3446 17.3792 14.6495C17.6473 14.7768 17.9551 14.7665 18.2481 14.7197C18.655 14.6548 19.0859 14.7239 19.4704 14.946C19.6481 15.0486 19.8025 15.176 19.9317 15.3214Z" fill="#785103"/>
</svg>

<svg xmlns="http://www.w3.org/2000/svg" width="24" height="24" fill="none" viewBox="0 0 24 24"><path fill="#785103" d="M.35 3.98c-.132.672-.198 1.007.013 1.264.21.256.588.256 1.343.256h19.027c.764 0 1.146 0 1.358-.26.21-.26.14-.599-.002-1.278-.096-.462-.239-.785-.503-1.042-.493-.479-1.215-.528-2.66-.628-5.644-.389-9.756-.39-15.394-.002-1.46.1-2.19.15-2.685.637-.265.261-.406.587-.497 1.054"/><path fill="#785103" fill-rule="evenodd" d="M22.491 8.813c-.013-.618-.02-.927-.225-1.127s-.522-.2-1.156-.2H1.388c-.64 0-.96 0-1.165.201-.205.203-.21.516-.219 1.14-.021 1.492.039 2.95.176 4.575.12 1.423.18 2.135.67 2.62.49.487 1.214.542 2.664.653 2.553.196 4.793.303 7.002.322A.49.49 0 0 0 11 16.5a7.5 7.5 0 0 1 10.306-6.958c.544.22 1.198-.142 1.185-.729M2.442 12.448c0-.548.445-.993.993-.993h1.912a.993.993 0 0 1 0 1.985H3.435a.99.99 0 0 1-.993-.992" clip-rule="evenodd"/><path fill="#785103" fill-rule="evenodd" d="M18.5 22a5.5 5.5 0 1 0 0-11 5.5 5.5 0 0 0 0 11m1.454-2.348c.566-.254.453-.999-.108-1.265-.26-.123-.56-.1-.84-.029a1.86 1.86 0 0 1-1.85-.558c-.311-.346.026-.8.491-.8a.1.1 0 0 0 .073-.169l-1.648-1.754a.1.1 0 0 0-.145-.001l-1.686 1.755a.1.1 0 0 0 .072.169c.447 0 .815.333.978.749a3.47 3.47 0 0 0 1.747 1.872 3.47 3.47 0 0 0 2.916.03m-.022-4.33c.258.29-.013.678-.402.678a.1.1 0 0 0-.069.173l1.859 1.754a.1.1 0 0 0 .145-.008l1.475-1.755a.1.1 0 0 0-.076-.164c-.51 0-.927-.385-1.123-.855a3.47 3.47 0 0 0-1.72-1.808 3.47 3.47 0 0 0-2.746-.102c-.663.256-.538 1.11.104 1.415.268.127.576.117.87.07a1.85 1.85 0 0 1 1.683.601" clip-rule="evenodd"/></svg>
